src/assets/img/bottom-filling/adv3.svg

<svg width="60" height="60" viewBox="0 0 60 60" fill="none" xmlns="http://www.w3.org/2000/svg">
<g clip-path="url(#clip0)">
<path d="M54.4315 8.10272C54.1506 7.96661 53.8221 7.96948 53.5435 8.11072L49.234 10.2965L45.8613 4.50311C44.7068 2.33922 42.4494 0.992116 39.997 1.00349H23.3308C20.8424 1.00949 18.5372 2.31235 17.2484 4.44112L14.1488 9.47857C13.8623 9.94402 14.0025 10.5532 14.4637 10.8464L25.4625 17.8457C25.6228 17.9475 25.8086 18.0015 25.9985 18.0016C26.0815 18.0018 26.1641 17.9913 26.2444 17.9706C26.5113 17.903 26.7385 17.7283 26.8724 17.4877L31.0719 9.93152L35.6714 18.6306L31.4839 21.1433C31.1162 21.3638 30.9299 21.7942 31.0209 22.2132C31.1115 22.632 31.459 22.9465 31.8848 22.9951L46.7662 24.6869C46.8037 24.6909 46.8415 24.6929 46.8792 24.6929C47.2624 24.6929 47.612 24.4739 47.7791 24.129L54.8953 9.43857C55.1361 8.9415 54.9285 8.34344 54.4315 8.10272ZM25.6395 15.5878L16.3675 9.68842L18.9572 5.48088C19.8823 3.94767 21.5402 3.0084 23.3308 3.00315H27.3903L29.8681 7.97761L25.6395 15.5878ZM46.2883 22.62L35.0415 21.3412L37.5122 19.8583C37.9671 19.5849 38.129 19.0038 37.8812 18.5345L29.6691 3.00315H39.997C41.7336 3.00065 43.3276 3.96404 44.1325 5.50288L47.9801 12.1152C48.2472 12.5721 48.824 12.7417 49.296 12.5021L51.8017 11.2323L46.2883 22.62Z" fill="#333333"/>
<path d="M59.1248 29.0042L55.8931 22.5489C55.6464 22.0548 55.0458 21.8545 54.5518 22.1012C54.5319 22.1111 54.5124 22.1217 54.4933 22.1329L42.4946 29.1322C42.0244 29.4064 41.86 30.0063 42.1246 30.482L46.2962 37.9992H36.9972V33.9997C36.9974 33.4475 36.5498 32.9996 35.9977 32.9994C35.7158 32.9993 35.447 33.1181 35.2574 33.3267L25.2584 44.3255C24.9326 44.6841 24.9107 45.2247 25.2064 45.6084L35.2054 58.607C35.5425 59.0443 36.1704 59.1256 36.6077 58.7885C36.8532 58.5992 36.997 58.307 36.9972 57.9971V54.9974H43.9964C46.4619 55.0581 48.743 53.6966 49.8598 51.4978L56.859 39.5051L58.9388 36.1454C60.284 33.9728 60.3551 31.244 59.1248 29.0042ZM48.121 50.5139C47.3505 52.0774 45.7388 53.048 43.9964 52.9976H35.9973C35.4451 52.9976 34.9974 53.4453 34.9974 53.9975V55.0574L27.2982 45.0525L34.9974 36.5854V38.9991C34.9974 39.5513 35.4451 39.999 35.9973 39.999H54.2543L48.121 50.5139ZM57.234 35.0975L55.4342 37.9972H48.5839L44.3464 30.3711L54.5783 24.4007L57.353 29.9401C58.2486 31.5543 58.2031 33.5263 57.234 35.0975Z" fill="#333333"/>
<path d="M23.9065 30.5815L17.9071 17.5829C17.7347 17.2072 17.3488 16.9762 16.9362 17.002L0.937982 18.0018C0.386791 18.0361 -0.0322883 18.5105 0.00195801 19.0617C0.0220808 19.3852 0.197562 19.6789 0.473032 19.8496L0.474032 19.8516L5.4175 22.9173L2.11785 29.5246C0.921858 31.6975 0.928733 34.3331 2.13585 36.4998L7.70025 46.1088L10.7429 51.3792C12.0497 53.599 14.4235 54.9721 16.9992 54.9978H20.9988C21.551 54.9978 21.9987 54.5501 21.9987 53.9979V39.9995C21.9987 39.4473 21.551 38.9996 20.9988 38.9996H13.5286L18.5161 30.3455L22.6396 31.9333C23.1551 32.1314 23.7336 31.8742 23.9317 31.3588C24.0286 31.1069 24.0195 30.8266 23.9065 30.5815ZM19.9989 40.9994V52.9981H16.9992C15.1359 52.9801 13.4183 51.987 12.4727 50.3813L9.72803 45.6259L12.5597 40.9994H19.9989ZM18.4361 28.1717C17.9766 27.9953 17.4571 28.1792 17.2112 28.6057L8.56216 43.6121L3.86666 35.4999C3.00351 33.9229 3.01638 32.0118 3.90066 30.4465L7.61926 22.9933C7.85211 22.5301 7.69237 21.9658 7.2513 21.6934L4.19263 19.8016L16.3783 19.0427L21.0578 29.1816L18.4361 28.1717Z" fill="#333333"/>
</g>
<defs>
<clipPath id="clip0">
<rect width="60" height="60" fill="white"/>
</clipPath>
</defs>
</svg>

<svg width="60" height="60" fill="none" xmlns="http://www.w3.org/2000/svg"><g clip-path="url(#clip0)" fill="#333"><path d="M54.431 8.103a1 1 0 00-.887.008l-4.31 2.185-3.373-5.793a6.612 6.612 0 00-5.864-3.5H23.331a7.13 7.13 0 00-6.083 3.438l-3.1 5.038a1 1 0 00.316 1.367l10.998 7a1 1 0 001.41-.358l4.2-7.556 4.6 8.699-4.188 2.512a1 1 0 00.4 1.852l14.882 1.692a1 1 0 001.013-.558l7.116-14.69a1 1 0 00-.464-1.336zM25.64 15.588l-9.273-5.9 2.59-4.207a5.126 5.126 0 014.374-2.478h4.06l2.477 4.975-4.228 7.61zm20.648 7.032l-11.246-1.279 2.47-1.483a1 1 0 00.37-1.323L29.668 3.003h10.328a4.66 4.66 0 014.136 2.5l3.847 6.612a1 1 0 001.316.387l2.506-1.27-5.514 11.388zm12.837 6.384l-3.232-6.455a1 1 0 00-1.4-.416l-11.998 7a1 1 0 00-.37 1.349l4.171 7.517h-9.299v-4a1 1 0 00-1.74-.672l-9.999 10.998a1 1 0 00-.052 1.283l10 12.999a1 1 0 001.791-.61v-3h7a6.4 6.4 0 005.863-3.5l6.999-11.992 2.08-3.36a7.086 7.086 0 00.186-7.14zM48.12 50.514a4.455 4.455 0 01-4.125 2.484h-7.999a1 1 0 00-1 1v1.06l-7.699-10.005 7.7-8.468V39a1 1 0 001 1h18.256L48.12 50.515zm9.113-15.417l-1.8 2.9h-6.85l-4.238-7.626 10.232-5.97 2.775 5.54a5.106 5.106 0 01-.119 5.156zm-33.326-4.516l-6-12.998a1 1 0 00-.97-.581l-15.999 1a1 1 0 00-.465 1.848l.001.002 4.944 3.065-3.3 6.608a7.2 7.2 0 00.018 6.975L7.7 46.109l3.043 5.27a7.345 7.345 0 006.256 3.619h4a1 1 0 001-1V40a1 1 0 00-1-1h-7.47l4.987-8.654 4.124 1.587a1 1 0 001.267-1.352zM19.998 41v12h-3a5.313 5.313 0 01-4.526-2.618l-2.745-4.755L12.559 41h7.439zm-1.563-12.827a1 1 0 00-1.225.434L8.562 43.612 3.867 35.5a5.2 5.2 0 01.034-5.053l3.718-7.454a1 1 0 00-.368-1.3l-3.058-1.891 12.185-.76 4.68 10.14-2.622-1.01z"/></g><defs><clipPath id="clip0"><path fill="#fff" d="M0 0h60v60H0z"/></clipPath></defs></svg>
